svg/fluentui-system-icons/ic_fluent_box_24_regular.svg

<svg width="24" height="24" viewBox="0 0 24 24" fill="none" xmlns="http://www.w3.org/2000/svg">
<path d="M10.5911 2.51301C11.4947 2.14671 12.5053 2.14671 13.4089 2.51301L20.9075 5.55298C21.5679 5.82071 22 6.46216 22 7.17477V16.8275C22 17.5401 21.5679 18.1815 20.9075 18.4493L13.4089 21.4892C12.5053 21.8555 11.4947 21.8555 10.5911 21.4892L3.09252 18.4493C2.43211 18.1815 2 17.5401 2 16.8275V7.17477C2 6.46216 2.43211 5.82071 3.09252 5.55298L10.5911 2.51301ZM12.8453 3.90312C12.3032 3.68334 11.6968 3.68334 11.1547 3.90312L9.24097 4.67894L16.7678 7.60604L19.437 6.57542L12.8453 3.90312ZM14.6911 8.40787L7.21472 5.50039L4.59029 6.56435L12.0013 9.44642L14.6911 8.40787ZM3.5 16.8275C3.5 16.9293 3.56173 17.0209 3.65607 17.0592L11.1547 20.0991C11.1863 20.112 11.2183 20.1241 11.2503 20.1354V10.7638L3.5 7.74979V16.8275ZM12.8453 20.0991L20.3439 17.0592C20.4383 17.0209 20.5 16.9293 20.5 16.8275V7.77292L12.7503 10.7651V20.1352C12.7822 20.1239 12.8139 20.1119 12.8453 20.0991Z" fill="#212121"/>
</svg>

<svg xmlns="http://www.w3.org/2000/svg" width="24" height="24"><path d="M10.591 2.513a3.75 3.75 0 0 1 2.818 0l7.498 3.04A1.75 1.75 0 0 1 22 7.175v9.653a1.75 1.75 0 0 1-1.093 1.621l-7.498 3.04a3.75 3.75 0 0 1-2.818 0l-7.498-3.04A1.75 1.75 0 0 1 2 16.827V7.176a1.75 1.75 0 0 1 1.093-1.622l7.498-3.04Zm2.254 1.39a2.25 2.25 0 0 0-1.69 0L9.24 4.68l7.527 2.927 2.669-1.03-6.592-2.673Zm1.846 4.505L7.215 5.5 4.59 6.564l7.411 2.882 2.69-1.038ZM3.5 16.828a.25.25 0 0 0 .156.231l7.499 3.04c.031.013.063.025.095.036v-9.371L3.5 7.75v9.078Zm9.345 3.271 7.499-3.04a.25.25 0 0 0 .156-.232V7.774l-7.75 2.992v9.37a2.18 2.18 0 0 0 .095-.036Z"/></svg>
